packages/assets/static/images/icons/waves.svg

<svg width="24" height="24" viewBox="0 0 24 24" xmlns="http://www.w3.org/2000/svg">
<path d="M20.8345 16.617C20.9616 16.7694 21.0231 16.966 21.0055 17.1637C20.9879 17.3614 20.8927 17.5441 20.7407 17.6717C19.1132 19.0208 17.6601 19.4998 16.3345 19.4998C14.5926 19.4998 13.0701 18.6729 11.6535 17.9061C9.27697 16.6161 7.22478 15.5023 4.24072 17.9754C4.16505 18.0393 4.07751 18.0875 3.98312 18.1173C3.88874 18.1471 3.78939 18.158 3.69079 18.1492C3.5922 18.1404 3.49631 18.1123 3.40867 18.0663C3.32102 18.0203 3.24334 17.9574 3.18011 17.8812C3.11689 17.8051 3.06936 17.7171 3.04027 17.6225C3.01119 17.5279 3.00112 17.4285 3.01064 17.33C3.02017 17.2314 3.04911 17.1358 3.09578 17.0485C3.14245 16.9612 3.20594 16.884 3.28259 16.8214C7.04853 13.7014 9.87509 15.2351 12.3698 16.5889C14.7463 17.8779 16.7985 18.9917 19.7826 16.5195C19.9353 16.3937 20.1316 16.3334 20.3286 16.3516C20.5256 16.3699 20.7075 16.4653 20.8345 16.617ZM19.7779 11.2733C16.7938 13.7464 14.7417 12.6326 12.3651 11.3426C9.8704 9.98982 7.04384 8.45607 3.2779 11.5761C3.12663 11.7037 3.03191 11.8859 3.0144 12.083C2.99689 12.2801 3.05799 12.4762 3.18441 12.6285C3.31082 12.7807 3.49229 12.8768 3.68927 12.8959C3.88626 12.9149 4.08278 12.8554 4.23603 12.7301C7.22009 10.257 9.27228 11.3708 11.6488 12.6608C13.0654 13.4286 14.5879 14.2545 16.3298 14.2545C17.6554 14.2545 19.1085 13.7754 20.736 12.4264C20.8127 12.3638 20.8762 12.2866 20.9228 12.1993C20.9695 12.112 20.9984 12.0163 21.008 11.9178C21.0175 11.8193 21.0074 11.7199 20.9783 11.6252C20.9493 11.5306 20.9017 11.4427 20.8385 11.3665C20.7753 11.2904 20.6976 11.2275 20.61 11.1815C20.5223 11.1355 20.4264 11.1073 20.3278 11.0986C20.2292 11.0898 20.1299 11.1007 20.0355 11.1305C19.9411 11.1603 19.8536 11.2085 19.7779 11.2723V11.2733ZM4.23603 7.48107C7.22009 5.00889 9.27228 6.12264 11.6488 7.4117C13.0654 8.18045 14.5879 9.00545 16.3298 9.00545C17.6554 9.00545 19.1085 8.52545 20.736 7.17732C20.8127 7.11469 20.8762 7.03751 20.9228 6.95022C20.9695 6.86293 20.9984 6.76727 21.008 6.66875C21.0175 6.57022 21.0074 6.47079 20.9783 6.37618C20.9493 6.28156 20.9017 6.19364 20.8385 6.11749C20.7753 6.04133 20.6976 5.97844 20.61 5.93245C20.5223 5.88645 20.4264 5.85827 20.3278 5.84951C20.2292 5.84075 20.1299 5.85159 20.0355 5.88141C19.9411 5.91123 19.8536 5.95944 19.7779 6.02326C16.7938 8.49639 14.7417 7.38264 12.3651 6.09264C9.8704 4.7417 7.04384 3.20795 3.2779 6.32795C3.19858 6.38968 3.13248 6.46672 3.08352 6.5545C3.03456 6.64228 3.00374 6.739 2.9929 6.83892C2.98206 6.93885 2.99141 7.03993 3.0204 7.13617C3.0494 7.2324 3.09743 7.32183 3.16167 7.39914C3.2259 7.47645 3.30502 7.54005 3.39432 7.58618C3.48362 7.63231 3.58128 7.66002 3.68149 7.66766C3.78171 7.6753 3.88245 7.66273 3.97771 7.63067C4.07297 7.59862 4.16081 7.54774 4.23603 7.48107Z"/>
</svg>

<svg viewBox="0 0 24 24" xmlns="http://www.w3.org/2000/svg" aria-hidden="true" fill="currentColor"><path d="M20.835 16.617a.75.75 0 0 1-.094 1.055c-1.628 1.349-3.08 1.828-4.407 1.828-1.741 0-3.264-.827-4.68-1.594-2.377-1.29-4.43-2.404-7.413.07a.748.748 0 0 1-1.23-.646.75.75 0 0 1 .272-.509c3.766-3.12 6.592-1.586 9.087-.232 2.376 1.289 4.429 2.403 7.413-.07a.75.75 0 0 1 1.051.098m-1.057-5.344c-2.984 2.473-5.036 1.36-7.413.07-2.495-1.353-5.321-2.887-9.087.233a.75.75 0 0 0 .958 1.154c2.984-2.473 5.036-1.36 7.413-.07 1.416.769 2.939 1.595 4.68 1.595 1.326 0 2.78-.48 4.407-1.829a.75.75 0 0 0 .102-1.06.75.75 0 0 0-1.06-.094zM4.236 7.481c2.984-2.472 5.036-1.358 7.413-.07 1.416.77 2.939 1.594 4.68 1.594 1.326 0 2.78-.48 4.407-1.828a.748.748 0 0 0-.126-1.245.75.75 0 0 0-.832.091c-2.984 2.473-5.036 1.36-7.413.07-2.495-1.351-5.321-2.885-9.087.235a.75.75 0 1 0 .958 1.153"/></svg>
